assets/icons/qvision/store.svg

<svg xmlns="http://www.w3.org/2000/svg" height="24" viewBox="0 0 24 24" width="24"><path d="M0 0h24v24H0z" fill="none"/><path d="M20 4H4v2h16V4zm1 10v-2l-1-5H4l-1 5v2h1v6h10v-6h4v6h2v-6h1zm-9 4H6v-4h6v4z"/></svg>

<svg width="24" height="24" viewBox="0 0 24 24" fill="none" xmlns="http://www.w3.org/2000/svg">
<g clip-path="url(#clip0_147_4790)">
<path d="M20 4H4V6H20V4ZM21 14V12L20 7H4L3 12V14H4V20H14V14H18V20H20V14H21ZM12 18H6V14H12V18Z" fill="#323232"/>
</g>
<defs>
<clipPath id="clip0_147_4790">
<rect width="24" height="24" fill="white"/>
</clipPath>
</defs>
</svg>
